lib/preview_tmp/nrk-logo-preview-nrk-tegnspraak-symbol-on-dark.svg

<svg width="64" height="22" viewBox="0 0 64 22" fill="none" xmlns="http://www.w3.org/2000/svg">
<path d="M0 17.9967V3.99794H4.59339V17.9967H0ZM10.8428 6.22591L13.4844 17.9967H8.45737L5.30307 3.99794H8.12254C8.76907 3.98954 9.39641 4.21745 9.88691 4.63878C10.3782 5.04244 10.7158 5.60281 10.8428 6.22591ZM14.1744 17.9967V3.99794H18.7678V17.9967H14.1744ZM22.2372 9.32145C21.7422 9.32627 21.2552 9.19676 20.828 8.94679C20.4064 8.70314 20.0563 8.35295 19.8127 7.93136C19.5624 7.50405 19.4329 7.01688 19.4378 6.5217C19.4321 6.02953 19.5618 5.54527 19.8127 5.12183C20.0589 4.70482 20.4086 4.35844 20.828 4.11627C21.2553 3.86658 21.7423 3.7371 22.2372 3.74161C22.7292 3.73631 23.2133 3.86591 23.6369 4.11627C24.0521 4.36056 24.3981 4.70665 24.6424 5.12183C24.893 5.54539 25.0226 6.02957 25.0172 6.5217C25.0218 7.01685 24.8923 7.50393 24.6424 7.93136C24.4007 8.3511 24.0542 8.70099 23.6369 8.94679C23.2133 9.19764 22.7289 9.32727 22.2366 9.32145H22.2372ZM25.7269 17.9967V3.99794H30.3207V17.9967H25.7269ZM36.136 11.6479C36.1489 11.6615 36.2475 11.8225 36.4317 12.131C36.6159 12.4394 36.8558 12.8338 37.1513 13.314C37.447 13.794 37.759 14.3033 38.0874 14.842C38.4157 15.3807 38.7247 15.8901 39.0143 16.3701C39.3028 16.8501 39.6313 17.3922 40 17.9967H34.9531C34.6375 17.484 34.3515 17.0207 34.0952 16.6067C33.8389 16.1926 33.5665 15.7457 33.2778 15.2659C32.9884 14.7866 32.7024 14.32 32.4196 13.866C32.1368 13.4121 31.8938 13.0145 31.6905 12.6732C31.4863 12.3317 31.3449 12.1016 31.2663 11.9831C31.0713 11.689 30.9559 11.3493 30.9315 10.9973C30.951 10.6594 31.0597 10.3328 31.2466 10.0506C31.3254 9.91918 31.47 9.68583 31.6803 9.35065C31.8906 9.01547 32.137 8.61789 32.4196 8.15784C32.7021 7.69779 32.9882 7.22787 33.2778 6.7481C33.5674 6.26833 33.8398 5.8181 34.0952 5.39749C34.3519 4.97731 34.6379 4.51068 34.9531 3.99761H40L36.0962 10.3661C35.9754 10.5552 35.9073 10.7731 35.8991 10.9973C35.9121 11.2327 35.9942 11.459 36.1353 11.6479H36.136Z" fill="white"/>
<circle cx="52.6667" cy="10.9967" r="10.3333" fill="white"/>
<path fill-rule="evenodd" clip-rule="evenodd" d="M60.2091 18.5392C62.2095 16.5388 63.3333 13.8257 63.3333 10.9967C63.3333 8.16771 62.2095 5.4546 60.2091 3.45421C58.2088 1.45383 55.4956 0.330017 52.6667 0.330017C49.8377 0.330017 47.1246 1.45383 45.1242 3.45421C43.1238 5.4546 42 8.16771 42 10.9967C42 13.8257 43.1238 16.5388 45.1242 18.5392C47.1246 20.5395 49.8377 21.6634 52.6667 21.6634C55.4956 21.6634 58.2088 20.5395 60.2091 18.5392ZM56.5963 6.2908L53.1766 8.14246L53.178 8.14012C53.13 8.16629 53.0943 8.21036 53.0786 8.26274C53.0629 8.31512 53.0686 8.37156 53.0943 8.41979L53.1076 8.44413C53.1337 8.4922 53.1778 8.52796 53.2303 8.54358C53.2827 8.5592 53.3392 8.55341 53.3873 8.52746L55.8186 7.21345C55.9338 7.14725 56.0705 7.12928 56.1989 7.16343C56.3273 7.19759 56.4369 7.2811 56.504 7.39579C56.5632 7.51469 56.5731 7.6522 56.5314 7.77833C56.4897 7.90447 56.3998 8.00899 56.2813 8.06913L53.8753 9.37012C53.8211 9.39713 53.7797 9.4445 53.7602 9.50187C53.7407 9.55925 53.7447 9.622 53.7713 9.67646C53.8023 9.7286 53.8527 9.76638 53.9115 9.78155C53.9702 9.79672 54.0326 9.78806 54.085 9.75746L54.744 9.40079L54.804 9.36746L55.8886 8.7808C56.0038 8.71455 56.1405 8.6965 56.269 8.73059C56.3974 8.76468 56.5071 8.84814 56.5743 8.96279C56.6336 9.08174 56.6434 9.2193 56.6017 9.34548C56.56 9.47167 56.4701 9.57626 56.3516 9.63646L54.7323 10.5121L54.472 10.6508C54.4122 10.489 54.2975 10.3533 54.1478 10.2675C53.9982 10.1816 53.8232 10.1511 53.6533 10.1811L50.7043 10.7438C50.6185 10.7643 50.5355 10.7953 50.4573 10.8361C50.2387 10.6391 50.0557 10.4058 49.9166 10.1465C49.7181 9.7796 49.6111 9.37024 49.6046 8.95316C49.5982 8.53608 49.6925 8.1236 49.8796 7.75079C49.8816 7.74745 49.8816 7.74412 49.8816 7.74079L51.1176 4.98645C51.1689 4.86389 51.2666 4.7666 51.3894 4.71582C51.5122 4.66505 51.6501 4.66492 51.773 4.71546C51.8925 4.77403 51.984 4.87741 52.0277 5.00313C52.0714 5.12884 52.0637 5.26673 52.0063 5.38679L51.6063 6.27746L52.253 5.92779C52.2578 5.92514 52.2626 5.92352 52.2674 5.92189C52.273 5.92003 52.2785 5.91817 52.284 5.91479C52.2884 5.91206 52.2926 5.90902 52.2967 5.90599C52.3021 5.90199 52.3076 5.89801 52.3136 5.89479L54.9316 4.47879C55.0468 4.41251 55.1835 4.39447 55.3119 4.42863C55.4403 4.4628 55.55 4.54638 55.617 4.66113C55.6762 4.78003 55.6861 4.91753 55.6444 5.04366C55.6027 5.1698 55.5128 5.27432 55.3943 5.33446L52.504 6.89745C52.4559 6.92368 52.4201 6.9679 52.4045 7.02043C52.3888 7.07296 52.3947 7.12953 52.4206 7.17779L52.4333 7.2018C52.4595 7.24992 52.5037 7.28569 52.5563 7.3013C52.6088 7.31692 52.6654 7.31111 52.7136 7.28513L56.1336 5.43546C56.2488 5.36923 56.3854 5.3512 56.5138 5.38529C56.6422 5.41938 56.7519 5.50283 56.819 5.61746C56.8782 5.73636 56.8881 5.87387 56.8464 6C56.8047 6.12614 56.7148 6.23066 56.5963 6.2908ZM52.673 13.2031L56.1583 14.9151C56.2788 14.9705 56.3729 15.0712 56.4195 15.1954C56.466 15.3196 56.4615 15.4572 56.407 15.5781C56.3445 15.6952 56.2382 15.7828 56.1114 15.8218C55.9846 15.8609 55.8475 15.8483 55.73 15.7868L52.246 14.0748C52.1969 14.0508 52.1403 14.0472 52.0886 14.0648C52.0369 14.0824 51.9942 14.1198 51.97 14.1688L51.9576 14.1935C51.9338 14.2426 51.9303 14.2992 51.9479 14.3509C51.9656 14.4026 52.003 14.4452 52.052 14.4695L54.531 15.6875C54.6515 15.7429 54.7453 15.8437 54.7918 15.968C54.8383 16.0922 54.8338 16.2298 54.7793 16.3508C54.7168 16.4678 54.6106 16.5553 54.4839 16.5943C54.3571 16.6333 54.2201 16.6207 54.1026 16.5591L51.6506 15.3548C51.5972 15.3262 51.5347 15.3199 51.4767 15.3373C51.4187 15.3547 51.3699 15.3943 51.341 15.4475C51.3166 15.5029 51.3151 15.5658 51.3368 15.6223C51.3585 15.6789 51.4017 15.7246 51.457 15.7495L53.2946 16.6525C53.4151 16.7079 53.5088 16.8086 53.5553 16.9328C53.6018 17.057 53.5974 17.1945 53.543 17.3155C53.4805 17.4325 53.3744 17.5201 53.2476 17.5592C53.1209 17.5983 52.9838 17.5857 52.8663 17.5241L51.2166 16.7135C51.2166 16.7135 49.7206 15.9658 49.6833 15.9325C49.1376 15.5917 48.7378 15.0606 48.5613 14.442C48.3847 13.8233 48.444 13.1612 48.7276 12.5838C48.9112 12.2099 49.1823 11.8859 49.5179 11.6393C49.8535 11.3927 50.2437 11.2307 50.6553 11.1671C50.657 11.1668 50.6584 11.166 50.6598 11.1651C50.6614 11.1641 50.663 11.1631 50.665 11.1631L53.6213 10.5748C53.6854 10.56 53.7518 10.558 53.8167 10.5689C53.8816 10.5798 53.9437 10.6034 53.9994 10.6384C54.0552 10.6734 54.1035 10.719 54.1415 10.7726C54.1796 10.8263 54.2067 10.887 54.2213 10.9511C54.2428 11.0822 54.2116 11.2164 54.1345 11.3246C54.0575 11.4328 53.9409 11.5062 53.81 11.5288L52.854 11.7191L53.513 12.0428C53.5174 12.045 53.5213 12.0478 53.5252 12.0507C53.53 12.0542 53.535 12.0579 53.5413 12.0605C53.546 12.0624 53.5506 12.064 53.5552 12.0656C53.5618 12.0678 53.5682 12.07 53.5746 12.0731L56.2413 13.3838C56.3618 13.4392 56.4555 13.54 56.502 13.6642C56.5485 13.7883 56.5441 13.9259 56.4896 14.0468C56.4271 14.1638 56.3208 14.2513 56.194 14.2903C56.0672 14.3293 55.9302 14.3167 55.8126 14.2551L52.8673 12.8081C52.8181 12.7841 52.7615 12.7806 52.7097 12.7983C52.6579 12.8159 52.6152 12.8534 52.591 12.9025L52.579 12.9271C52.5551 12.9762 52.5515 13.0328 52.5691 13.0845C52.5867 13.1362 52.6241 13.1788 52.673 13.2031Z" fill="#1767CE"/>
</svg>

<svg xmlns="http://www.w3.org/2000/svg" viewBox="0 0 64 22"><path fill="#fff" d="M0 17.997v-14h4.593v14H0ZM10.843 6.226l2.641 11.77H8.457L5.303 3.999h2.82a2.655 2.655 0 0 1 1.764.64c.491.404.829.965.956 1.588Zm3.331 11.77V3.999h4.594v13.999h-4.594Zm8.063-8.675a2.738 2.738 0 0 1-1.409-.374 2.778 2.778 0 0 1-1.015-1.016 2.735 2.735 0 0 1-.375-1.41 2.685 2.685 0 0 1 .375-1.4 2.812 2.812 0 0 1 3.824-1.005c.415.245.761.59 1.005 1.006.251.423.38.908.375 1.4.005.495-.125.982-.375 1.41a2.8 2.8 0 0 1-1.005 1.015c-.424.25-.908.38-1.4.374Zm3.49 8.676v-14h4.594v14h-4.594Zm10.409-6.35c.013.014.111.175.296.484.184.308.424.703.72 1.183a384.573 384.573 0 0 1 1.862 3.056c.289.48.617 1.022.986 1.627h-5.047l-.858-1.39c-.256-.414-.529-.861-.817-1.341a118.3 118.3 0 0 0-.858-1.4 71.148 71.148 0 0 1-.73-1.193 21.119 21.119 0 0 0-.424-.69 2.04 2.04 0 0 1-.334-.986c.019-.338.128-.664.315-.946a48.2 48.2 0 0 1 .433-.7 216.7 216.7 0 0 0 1.598-2.603l.817-1.35.858-1.4H40l-3.904 6.368c-.12.19-.189.407-.197.631.013.236.095.462.236.65h.001Z"/><circle cx="52.667" cy="10.997" r="10.333" fill="#fff"/><path fill="#1767CE" fill-rule="evenodd" d="M60.21 18.54A10.667 10.667 0 1 0 45.123 3.453 10.667 10.667 0 0 0 60.21 18.54ZM56.595 6.29l-3.42 1.852.002-.002a.207.207 0 0 0-.084.28l.014.024a.207.207 0 0 0 .28.083l2.43-1.314a.504.504 0 0 1 .686.183.504.504 0 0 1-.223.673L53.875 9.37a.23.23 0 0 0-.104.306.23.23 0 0 0 .314.081l.659-.356.06-.034 1.085-.586a.504.504 0 0 1 .685.182.504.504 0 0 1-.222.673l-1.62.876-.26.139a.736.736 0 0 0-.819-.47l-2.949.563c-.086.02-.169.051-.247.092a2.593 2.593 0 0 1-.578-3.085c.003-.004.003-.007.003-.01l1.236-2.755a.503.503 0 0 1 .655-.27.505.505 0 0 1 .233.67l-.4.891.647-.35.014-.005a.076.076 0 0 0 .03-.016.14.14 0 0 1 .017-.011l2.618-1.416a.503.503 0 0 1 .685.182.504.504 0 0 1-.223.673l-2.89 1.563a.207.207 0 0 0-.083.28l.012.025a.207.207 0 0 0 .28.083l3.42-1.85a.503.503 0 0 1 .686.182.504.504 0 0 1-.223.674Zm-3.923 6.913 3.485 1.712a.504.504 0 0 1 .249.663.503.503 0 0 1-.677.209l-3.484-1.712a.207.207 0 0 0-.276.094l-.012.024a.208.208 0 0 0 .094.277l2.479 1.217a.503.503 0 0 1 .248.664.503.503 0 0 1-.676.208l-2.452-1.204a.229.229 0 0 0-.31.092.23.23 0 0 0 .116.303l1.838.902a.502.502 0 0 1 .248.663.503.503 0 0 1-.677.21l-1.65-.811s-1.495-.748-1.533-.781a2.598 2.598 0 0 1-.165-4.294 2.588 2.588 0 0 1 1.142-.474l.005-.002 2.956-.588a.5.5 0 0 1 .6.376.503.503 0 0 1-.411.578l-.956.19.659.324a.082.082 0 0 1 .012.008l.016.01.014.005a.158.158 0 0 1 .02.007l2.666 1.31a.503.503 0 0 1 .249.664.503.503 0 0 1-.677.208l-2.946-1.447a.207.207 0 0 0-.276.095l-.012.024a.207.207 0 0 0 .094.276Z" clip-rule="evenodd"/></svg>
